icons/svg/seamark/notice_regulation_crosstoport.svg

<?xml version="1.0" encoding="UTF-8" standalone="no"?>
<svg
   xmlns:dc="http://purl.org/dc/elements/1.1/"
   xmlns:cc="http://creativecommons.org/ns#"
   xmlns:rdf="http://www.w3.org/1999/02/22-rdf-syntax-ns#"
   xmlns:svg="http://www.w3.org/2000/svg"
   xmlns="http://www.w3.org/2000/svg"
   xmlns:sodipodi="http://sodipodi.sourceforge.net/DTD/sodipodi-0.dtd"
   xmlns:inkscape="http://www.inkscape.org/namespaces/inkscape"
   width="320"
   height="320"
   id="svg2"
   version="1.1"
   inkscape:version="0.48.4 r9939"
   sodipodi:docname="notice_regulation_keeptostarboard.svg">
  <defs
     id="defs13">
    <inkscape:path-effect
       effect="gears"
       id="path-effect3774"
       is_visible="true"
       teeth="6"
       phi="-1.2" />
    <inkscape:path-effect
       effect="bend_path"
       id="path-effect3772"
       is_visible="false"
       bendpath="m 95.790098,316.51174 c 144.429032,-206.42506 223.313032,-11.7428 339.548092,0"
       prop_scale="1.19"
       scale_y_rel="false"
       vertical="false"
       bendpath-nodetypes="cc" />
    <inkscape:path-effect
       effect="spiro"
       id="path-effect3775-7"
       is_visible="true" />
    <inkscape:path-effect
       effect="spiro"
       id="path-effect3775-7-9"
       is_visible="true" />
    <inkscape:path-effect
       effect="spiro"
       id="path-effect3775-7-4"
       is_visible="true" />
    <inkscape:path-effect
       effect="spiro"
       id="path-effect3775-7-4-2"
       is_visible="true" />
  </defs>
  <sodipodi:namedview
     pagecolor="#ffffff"
     bordercolor="#666666"
     borderopacity="1"
     objecttolerance="10"
     gridtolerance="10"
     guidetolerance="10"
     inkscape:pageopacity="0"
     inkscape:pageshadow="2"
     inkscape:window-width="1920"
     inkscape:window-height="1004"
     id="namedview11"
     showgrid="false"
     inkscape:zoom="3.2551722"
     inkscape:cx="171.80626"
     inkscape:cy="140.36689"
     inkscape:window-x="1680"
     inkscape:window-y="0"
     inkscape:window-maximized="1"
     inkscape:current-layer="svg2"
     inkscape:snap-bbox="true"
     inkscape:object-nodes="true"
     inkscape:snap-midpoints="true"
     inkscape:snap-grids="true"
     inkscape:snap-bbox-edge-midpoints="true"
     showguides="true"
     inkscape:guide-bbox="true">
    <inkscape:grid
       type="xygrid"
       id="grid2990"
       empspacing="5"
       visible="true"
       enabled="true"
       snapvisiblegridlinesonly="true"
       spacingx="10px"
       spacingy="10px"
       dotted="false" />
    <sodipodi:guide
       orientation="1,0"
       position="55.202458,260.58927"
       id="guide3872" />
    <sodipodi:guide
       orientation="1,0"
       position="265.17816,340"
       id="guide3874" />
    <sodipodi:guide
       orientation="0,1"
       position="317.80107,264.96094"
       id="guide3876" />
    <sodipodi:guide
       orientation="0,1"
       position="325.098,54.759006"
       id="guide3878" />
  </sodipodi:namedview>
  <metadata
     id="metadata2975">image/svg+xmlen<rdf:RDF>
  <cc:Work
     rdf:about="">
    <dc:format>image/svg+xml</dc:format>
    <dc:type
       rdf:resource="http://purl.org/dc/dcmitype/StillImage" />
    <dc:title></dc:title>
  </cc:Work>
</rdf:RDF>
</metadata>
  <path
     style="color:#000000;fill:#000000;fill-opacity:1;stroke:none;stroke-width:15.17103481;marker:none;visibility:visible;display:inline;overflow:visible;enable-background:accumulate"
     d="M 141.60489,112.00178 117.20261,82.78889 92.476025,111.99937 107.52398,112 l 0,25.1555 101.28597,59.96634 0.0559,38.87816 18.65817,0 0,-48.44353 -101.33865,-59.31794 0.003,-16.23422 15.41652,-0.003"
     id="path3772-3-9"
     inkscape:path-effect="#path-effect3775-7-4"
     inkscape:original-d="M 141.60489,112.00178 117.20261,82.78889 92.476025,111.99937 107.52398,112 l 0,25.1555 101.28597,59.96634 0.0559,38.87816 18.65817,0 0,-48.44353 -101.33865,-59.31794 0.003,-16.23422 z"
     inkscape:connector-curvature="0"
     sodipodi:nodetypes="cccccccccccc" />
  <path
     style="color:#000000;fill:#000000;fill-opacity:1;stroke:none;stroke-width:15.17103481;marker:none;visibility:visible;display:inline;overflow:visible;enable-background:accumulate"
     d="m 208.875,84.78125 -0.0312,16.65625 18.6875,-0.125 0,-16.53125 z m 18.65625,30.625 -18.71875,0.125 0,10.125 -14.875,8.8125 8.75,15.28125 24.84375,-14.53125 z M 178.375,142.875 l -38.21875,23.4375 8.59375,15.03125 38.3125,-23.25 z m -54.15625,32.03125 -16.6875,10.71875 0,25.15625 -15.0625,0 L 117.1875,240 l 24.40625,-29.21875 -15.40625,0 0,-16.21875 6.59375,-4.6875 z"
     id="path3772-3-9-8"
     inkscape:connector-curvature="0"
     sodipodi:nodetypes="ccccccccccccccccccccccccccc" />
</svg>

<svg width="320" height="320" viewBox="0 0 320 320" fill="none" xmlns="http://www.w3.org/2000/svg">
<path d="M141.605 112.002L117.203 82.7891L92.4761 112L107.524 112V137.156L208.81 197.122L208.866 236H227.524V187.557L126.185 128.239L126.188 112.004L141.605 112.001" fill="black"/>
<path d="M208.875 84.7812L208.844 101.438L227.531 101.312V84.7812H208.875ZM227.531 115.406L208.812 115.531V125.656L193.938 134.469L202.688 149.75L227.531 135.219V115.406ZM178.375 142.875L140.156 166.312L148.75 181.344L187.062 158.094L178.375 142.875ZM124.219 174.906L107.531 185.625V210.781H92.4688L117.188 240L141.594 210.781H126.188V194.562L132.781 189.875L124.219 174.906Z" fill="black"/>
</svg>
